Adwaita++/actions/22/document-revert.svg

<svg fill="none" height="22" viewBox="0 0 22 22" width="22" xmlns="http://www.w3.org/2000/svg">
  <path clip-rule="evenodd" d="m5.5 3c-.26521.00003-.51956.10538-.70709.29291s-.29288.44188-.29291.70709v14c.00003.2652.10538.5196.29291.7071s.44188.2929.70709.2929h11c.2652 0 .5196-.1054.7071-.2929s.2929-.4419.2929-.7071v-4c0-1.3333-.8142-2.2753-1.5527-2.6445s-1.4473-.3555-1.4473-.3555h-1.5859l.2832-.2831c.003-.003.007-.0061.01-.0101.1868-.1868.2927-.4416.2927-.7068v-1h-1c-.2652.00004-.5195.10548-.707.29303l-2.707 2.70697 2.6973 2.6973c.1883.1936.4468.3027.7168.3027h1v-1c0-.2652-.1054-.5195-.2929-.707l-.293-.293h1.5859s.2912.0138.5527.1445c.2615.1308.4473.1888.4473.8555v3h-9.00004v-12h6.58594l2.4141 2.41412v.58594c-.0019.13251.0226.26406.072.38702.0494.12297.1228.23492.2158.32929s.2039.16931.3262.22046c.1222.05115.2534.07745.386.07745.1325 0 .2637-.0263.3859-.07745.1223-.05115.2332-.12609.3262-.22046.0931-.09437.1664-.20632.2158-.32929.0495-.12296.0739-.25451.0721-.38702v-1c-.0001-.2652-.1055-.51952-.293-.70703l-3-3c-.1875-.18754-.4418-.29292-.707-.29297z" fill="#444" fill-rule="evenodd"/>
</svg>

<svg xmlns="http://www.w3.org/2000/svg" fill="none" width="22" height="22" viewBox="0 0 22 22">
 <path fill="#444" fill-rule="evenodd" d="M5.5 3C5.23479 3.00003 4.98044 3.10538 4.79291 3.29291C4.60538 3.48044 4.50003 3.73479 4.5 4V18C4.50003 18.2652 4.60538 18.5196 4.79291 18.7071C4.98044 18.8946 5.23479 19 5.5 19H16.5C16.7652 19 17.0196 18.8946 17.2071 18.7071C17.3946 18.5196 17.5 18.2652 17.5 18V14C17.5 12.6667 16.6858 11.7247 15.9473 11.3555C15.2088 10.9863 14.5 11 14.5 11H12.9141L13.1973 10.7169C13.2003 10.7139 13.2043 10.7108 13.2073 10.7068C13.3941 10.52 13.5 10.2652 13.5 10V9H12.5C12.2348 9.00004 11.9805 9.10548 11.793 9.29303L9.086 12L11.7833 14.6973C11.9716 14.8909 12.2301 15 12.5001 15H13.5001V14C13.5001 13.7348 13.3947 13.4805 13.2072 13.293L12.9142 13H14.5001C14.5001 13 14.7913 13.0138 15.0528 13.1445C15.3143 13.2753 15.5001 13.3333 15.5001 14V17H6.50006V5H13.086L15.5001 7.41412V8.00006C15.4982 8.13257 15.5227 8.26412 15.5721 8.38708C15.6215 8.51005 15.6949 8.622 15.7879 8.71637C15.8809 8.81074 15.9918 8.88568 16.1141 8.93683C16.2363 8.98798 16.3675 9.01428 16.5001 9.01428C16.6326 9.01428 16.7638 8.98798 16.886 8.93683C17.0083 8.88568 17.1192 8.81074 17.2122 8.71637C17.3053 8.622 17.3786 8.51005 17.428 8.38708C17.4775 8.26412 17.5019 8.13257 17.5001 8.00006V7.00006C17.5 6.73486 17.3946 6.48054 17.2071 6.29303L14.2071 3.29303C14.0196 3.10549 13.7653 3.00011 13.5001 3.00006L5.5 3Z" clip-rule="evenodd"/>
</svg>
